images_sukapura_svg/cmd/sc_mergecells.svg

<svg height="16" viewBox="0 0 16 16" width="16" xmlns="http://www.w3.org/2000/svg" xmlns:xlink="http://www.w3.org/1999/xlink"><linearGradient id="a" gradientUnits="userSpaceOnUse" x1="40" x2="40" y1="5" y2="-1"><stop offset="0" stop-color="#0040dd"/><stop offset="1" stop-color="#0a84ff"/></linearGradient><path d="m1 1v13h14v-12.992188z" fill="#fff"/><path d="m5 1v3h-4v1h14v-1h-4v-3h-1v3h-4v-3zm0 7.9960938v.0039062h-.8652344-3.1347656v1h3.9238281.0761719v.261719c.018856.104022.0269564.208888.0214844.310547-.00261.04844-.0145684.092199-.0214844.138672v3.289062h1v-4h4v4h1v-3.339844c-.0034-.02992-.012022-.05718-.013672-.08789-.003478-.064576.007135-.131272.013672-.197266v-.375h.083984 3.916016v-1h-3.126953-.873047v-.0039062l-1 .0019531v.0019531h-4v-.0019531z" fill="#bababa"/><path d="m0 0v5 .875 4.230469 4.394531c-.00038442.276301.22369855.500384.5.5h15c.276301.000384.500384-.223699.5-.5v-4.5-.8886719-3.2441406-.8671875-5zm1 1h4 1 4 1 4v3 1 4 1h.113281l-.111328.111328v3.890625h-14.00390612v-3.896484h.00195312v-.105469-1-4-1z" fill="#69696e"/><path d="m1 4v1h14v-1zm0 5v1h14v-1z" fill="url(#a)"/></svg>

<?xml version="1.0" encoding="UTF-8" standalone="no"?>
<svg
   xmlns:dc="http://purl.org/dc/elements/1.1/"
   xmlns:cc="http://creativecommons.org/ns#"
   xmlns:rdf="http://www.w3.org/1999/02/22-rdf-syntax-ns#"
   xmlns:svg="http://www.w3.org/2000/svg"
   xmlns="http://www.w3.org/2000/svg"
   xmlns:xlink="http://www.w3.org/1999/xlink"
   xmlns:sodipodi="http://sodipodi.sourceforge.net/DTD/sodipodi-0.dtd"
   xmlns:inkscape="http://www.inkscape.org/namespaces/inkscape"
   viewBox="0 0 16 16"
   version="1.1"
   id="svg14"
   sodipodi:docname="sc_mergecells.svg"
   inkscape:export-filename="/home/rizmut/Dokumen/Rizmut/Github/libreoffice-style-sukapura/images_sukapura/cmd/sc_mergecells.png"
   inkscape:export-xdpi="96"
   inkscape:export-ydpi="96"
   inkscape:version="0.92.3 (unknown)"
   width="16"
   height="16">
  <metadata
     id="metadata20">
    <rdf:RDF>
      <cc:Work
         rdf:about="">
        <dc:format>image/svg+xml</dc:format>
        <dc:type
           rdf:resource="http://purl.org/dc/dcmitype/StillImage" />
        <dc:title></dc:title>
      </cc:Work>
    </rdf:RDF>
  </metadata>
  <defs
     id="defs18">
    <filter
       style="color-interpolation-filters:sRGB"
       id="b"
       height="1.094553"
       width="1.097492"
       x="-0.048746001"
       y="-0.047277">
      <feGaussianBlur
         stdDeviation=".36559322"
         id="feGaussianBlur957" />
    </filter>
    <linearGradient
       gradientTransform="translate(-41,-2)"
       id="a"
       gradientUnits="userSpaceOnUse"
       x1="12"
       x2="12"
       y1="3"
       y2="21">
      <stop
         offset="0"
         stop-color="#efefef"
         id="stop948" />
      <stop
         offset=".33333334"
         stop-color="#fff"
         id="stop950" />
      <stop
         offset=".8888889"
         stop-color="#fff"
         id="stop952" />
      <stop
         offset="1"
         stop-color="#f5f5f5"
         id="stop954" />
    </linearGradient>
    <linearGradient
       gradientTransform="translate(32,-5)"
       id="a-3"
       gradientUnits="userSpaceOnUse"
       x1="14"
       x2="13.79661"
       y1="22"
       y2="2.1355929">
      <stop
         offset="0"
         stop-color="#0040dd"
         id="stop1604" />
      <stop
         offset="1"
         stop-color="#0a84ff"
         id="stop1606" />
    </linearGradient>
    <filter
       style="color-interpolation-filters:sRGB"
       id="b-6"
       height="1.094553"
       width="1.097492"
       x="-0.048746001"
       y="-0.047277">
      <feGaussianBlur
         stdDeviation=".36559322"
         id="feGaussianBlur957-7" />
    </filter>
    <linearGradient
       inkscape:collect="always"
       xlink:href="#a-3"
       id="linearGradient966"
       x1="8"
       y1="10"
       x2="8"
       y2="4"
       gradientUnits="userSpaceOnUse" />
  </defs>
  <sodipodi:namedview
     pagecolor="#ffffff"
     bordercolor="#666666"
     borderopacity="1"
     objecttolerance="10"
     gridtolerance="10"
     guidetolerance="10"
     inkscape:pageopacity="0"
     inkscape:pageshadow="2"
     inkscape:window-width="1366"
     inkscape:window-height="699"
     id="namedview16"
     showgrid="true"
     inkscape:zoom="16"
     inkscape:cx="12.767763"
     inkscape:cy="3.478814"
     inkscape:window-x="0"
     inkscape:window-y="0"
     inkscape:window-maximized="1"
     inkscape:current-layer="g1014"
     inkscape:snap-global="true">
    <inkscape:grid
       type="xygrid"
       id="grid827"
       spacingx="0.5"
       spacingy="0.5"
       empspacing="2" />
  </sodipodi:namedview>
  <g
     id="g1014">
    <path
       id="path2-3"
       d="M 1,1 V 14 H 15 V 1.007812 Z"
       style="fill:#ffffff"
       inkscape:connector-curvature="0"
       sodipodi:nodetypes="ccccc" />
    <path
       id="path4-6"
       d="M 5 1 L 5 4 L 1 4 L 1 5 L 15 5 L 15 4 L 11 4 L 11 1 L 10 1 L 10 4 L 6 4 L 6 1 L 5 1 z M 5 8.9960938 L 5 9 L 4.1347656 9 L 1 9 L 1 10 L 4.9238281 10 L 5 10 L 5 10.261719 C 5.018856 10.365741 5.0269564 10.470607 5.0214844 10.572266 C 5.0188744 10.620706 5.006916 10.664465 5 10.710938 L 5 14 L 6 14 L 6 10 L 10 10 L 10 14 L 11 14 L 11 10.660156 C 10.9966 10.630236 10.987978 10.602976 10.986328 10.572266 C 10.98285 10.50769 10.993463 10.440994 11 10.375 L 11 10 L 11.083984 10 L 15 10 L 15 9 L 11.873047 9 L 11 9 L 11 8.9960938 L 10 8.9980469 L 10 9 L 6 9 L 6 8.9980469 L 5 8.9960938 z "
       style="fill:#bababa;fill-opacity:1" />
    <path
       id="path929"
       d="M 0 0 L 0 5 L 0 5.875 L 0 10.105469 L 0 14.5 C -0.00038442 14.776301 0.22369855 15.000384 0.5 15 L 15.5 15 C 15.776301 15.000384 16.000384 14.776301 16 14.5 L 16 10 L 16 9.1113281 L 16 5.8671875 L 16 5 L 16 0 L 0 0 z M 1 1 L 5 1 L 6 1 L 10 1 L 11 1 L 15 1 L 15 4 L 15 5 L 15 9 L 15 10 L 15.113281 10 L 15.001953 10.111328 L 15.001953 14.001953 L 0.99804688 14.001953 L 0.99804688 10.105469 L 1 10.105469 L 1 10 L 1 9 L 1 5 L 1 4 L 1 1 z "
       style="fill:#69696e;fill-opacity:1" />
    <path
       id="rect955"
       d="M 1 4 L 1 5 L 15 5 L 15 4 L 1 4 z M 1 9 L 1 10 L 15 10 L 15 9 L 1 9 z "
       style="opacity:1;fill:url(#linearGradient966);fill-opacity:1;stroke:none;stroke-width:1;stroke-linecap:round;stroke-linejoin:round;stroke-miterlimit:4;stroke-dasharray:none;stroke-opacity:0" />
  </g>
</svg>
